!!!COM: Bach, Johann Sebastian
!!!CDT: 1685/3//-1750/7/28/
!!!OTL@@DE: Helft mir Gott's Guete preisen
!!!AGN: 4-Part Chorale; Chorale Prelude
!!!SCT: BH 088
!!!SCT: BWV 28
**harm	**root	**kern	**kern	**kern	**kern
!	!	!bass	!tenor	!alto	!soprno
*	*Iorgan	*Iorgan	*Iorgan	*Iorgan	*Iorgan
*	*	*clefF4	*clefF4	*clefG2	*clefG2
*M4/4	*M4/4	*M4/4	*M4/4	*M4/4	*M4/4
*met(c)	*met(c)	*met(c)	*met(c)	*met(c)	*met(c)
*MM60	*MM60	*MM60	*MM60	*MM60	*MM60
*k[b-e-a-]	*k[b-e-a-]	*k[b-e-a-]	*k[b-e-a-]	*k[b-e-a-]	*k[b-e-a-]
*c:	*c:	*c:	*c:	*c:	*c:
*>[A,A,B]	*>[A,A,B]	*>[A,A,B]	*>[A,A,B]	*>[A,A,B]	*>[A,A,B]
*>A	*>A	*>A	*>A	*>A	*>A
i	4AA	4C	4e-	4g	4cc
=1	=1	=1	=1	=1	=1
i	4AA	4c	4e-	4g	4cc
Vb	4EE	4B	4d	4g	4dd
i	4AA	4c	4c	4g	4ee-
Vb/-VII	4DD	4A	4c	4f	4ff
=2	=2	=2	=2	=2	=2
I/-VII	4.GG	2B-	8B-	4f	4.dd
.	.	.	8A	.	.
.	.	.	8B-	8b-	.
viiob/-VII	8FF#	.	8c	8a	8ee-
I/-VII;	4GG;	4BB-;	4d;	4b-;	4ff;
Vb	4EE	4B	4d	4g	4gg
=3	=3	=3	=3	=3	=3
i	4AA	8c	8c	4g	4ee-
.	.	8B-	8d	.	.
VI	4FF	8A-	4e-	4cc	4cc
.	.	8G	.	.	.
ii7b	4BB	4F	4a-	4cc	4dd
V	4EE	4G	8g	4b	4dd
.	.	.	8f	.	.
=4	=4	=4	=4	=4	=4
i;	2.AA;	2.C;	2.e-;	2.g;	2.cc;
=:|!	=:|!	=:|!	=:|!	=:|!	=:|!
*>B	*>B	*>B	*>B	*>B	*>B
i	4AA	4C	4e-	4cc	4gg
=5	=5	=5	=5	=5	=5
viiob	4GG#	4D	4f	8cc	4ff
.	.	.	.	8b	.
ib	4AA	4E-	4g	4cc	4ee-
ii7b	8BB	8F	8a-	8cc	4dd
V	8EE	8G	8g	8b	.
ivb	4DD	4A-	8g	8cc	4cc
.	.	.	8f	8c	.
=6	=6	=6	=6	=6	=6
V;	2.EE;	2.G;	2.B;	2.g;	2.dd;
V	4EE	4G	4g	4b	4dd
!!linebreak: 2
=7	=7	=7	=7	=7	=7
i	4AA	4c	4g	4cc	4ee-
Vb/III	4GG	4d	4f	4b-	4ff
III	4CC	8e-	8e-	4b-	4gg
.	.	8d	8f	.	.
i	4AA	8c	4g	4cc	4ee-
.	.	8B-	.	.	.
=8	=8	=8	=8	=8	=8
Vb/-VII	4DD	8A	4c	4cc	4.ff
.	.	8G	.	.	.
V/-VII	4DD	4F	4f	8b-	.
.	.	.	.	8a	8ee-
I/-VII;	4GG;	4B-;	4f;	4b-;	4dd;
V7d/III	4GG	4A-	4f	4b-	4dd
=9	=9	=9	=9	=9	=9
IIIb	4CC	4G	4B-	4b-	4ee-
iv	4DD	4F	8c	4a-	4ff
.	.	.	8d	.	.
III	4CC	4E-	8e-	4g	4gg
.	.	.	8f	.	.
i	4AA	8D	4g	4cc	4ee-
.	.	8C	.	.	.
=10	=10	=10	=10	=10	=10
Ib/-VII	4GG	8D	4f	8cc	4.ff
.	.	8E-	.	8b-	.
V/-VII	4DD	4F	4c	8a	.
.	.	.	.	8g	8ee-
I/-VII;	4GG;	4BB-;	4d;	4f;	4dd;
Vb	4EE	4B	4d	4g	4gg
=11	=11	=11	=11	=11	=11
i	8AA	8c	8c	4g	8ee-
vb	8EE	8B-	8d	.	8dd
VI	4FF	8A-	4e-	4cc	4cc
.	.	8G	.	.	.
ii7b	4BB	4F	4a-	4cc	4dd
V	4EE	4G	8g	4b	4dd
.	.	.	8f	.	.
=12	=12	=12	=12	=12	=12
I;	2.AA;	2.C;	2.e;	2.g;	2.cc;
==	==	==	==	==	==
*-	*-	*-	*-	*-	*-
!!!ONB: m.7, b.3: bass note 8C should perhaps be 8c
!!chor2scor: -l 2 -s 0.6 -o %b.pmx
!!!YEC: Copyright 1994, David Huron
!!!YEC: Changes/Additions 2001 by Craig Stuart Sapp
!!!YEN: United States of America
!!!SMA: 371 Bach Chorales, edited by Ludwig Erk, C.F. Peters
!!!PDT: 1850, 1865
!!!ONB: Harmony and Root analysis done manually
